html/dist/img/svg/bank.svg

<svg width="31" height="20" viewBox="0 0 31 20" fill="none" xmlns="http://www.w3.org/2000/svg">
<path d="M4.625 12H17.0536M4.625 15H12.9107M3.07143 19H27.9286C29.0726 19 30 18.1046 30 17V3C30 1.89543 29.0726 1 27.9286 1H3.07143C1.92741 1 1 1.89543 1 3V17C1 18.1046 1.92741 19 3.07143 19ZM24.3036 4.5H26.375V6.5H24.3036V4.5Z" stroke="#FF4978" stroke-width="2" stroke-linecap="round" stroke-linejoin="round"/>
</svg>

<svg width="31" height="20" viewBox="0 0 31 20" fill="none" xmlns="http://www.w3.org/2000/svg"><path d="M4.625 12h12.429M4.625 15h8.286m-9.84 4H27.93c1.143 0 2.07-.895 2.07-2V3c0-1.105-.927-2-2.071-2H3.07C1.927 1 1 1.895 1 3v14c0 1.105.927 2 2.071 2zM24.304 4.5h2.071v2h-2.071v-2z" stroke="#FF4978" stroke-width="2" stroke-linecap="round" stroke-linejoin="round"/></svg>
